X: 524
T:Love Song for Deborah Anne (harmony?)
N: page 213
N: heptatonic
R: Waltz
M:3/4
L:1/8
C:John Cairns
K:D
z2|:e2 A3 A|g2 f2 d2|e3 d B2|c4 cd|
e2 A3 A|g4 a2|e6|e4 cd|
e2 A3 A|g2 f2 d2|e3 d B2|c4 dc|
B2 G3 B|e2 d2 B2|A6|A6||
